X:1
T:Billy Boy
M:2/4
L:1/16
K:G
 B3 c| d3 d d3 d| g4 B3 c| d4 d3 e| d4 B3 c| d3 d d3 d| g4 c3 B| B2 A6-|\
 A4| A3 B| c3 c c3 c| c4 A2 BB| c3 c c3 c| d4 f3 e| d3 d d3 d| d4 c3 A|\
 A2 G4||
